images/01/Facebook-Logo.svg

<svg fill="none" height="49" viewBox="0 0 252 49" width="252" xmlns="http://www.w3.org/2000/svg" xmlns:xlink="http://www.w3.org/1999/xlink"><clipPath id="a"><path d="m.499512 0h251v49h-251z"/></clipPath><g clip-path="url(#a)"><path d="m16.5098 48.1218h-9.44844v-23.6591h-6.436482v-7.703h6.436232v-5.4812c0-6.49517 2.84676-11.1535 12.26969-11.1535 1.9929 0 5.1218.403495 5.1218.403495v7.152595h-3.2863c-3.3486 0-4.656 1.0231-4.656 3.85161v5.227h7.8169l-.6961 7.703h-7.121zm21.6798-31.9776c-.1376 0-.2793.005-.4195.0085-8.7612 0-12.7696 6.6197-12.7696 16.0164 0 11.8374 5.1995 16.5751 12.8381 16.5751 4.3703 0 7.2416-1.8477 8.9868-5.2958v4.6767h8.9869v-31.3621h-8.9869v4.8231c-1.425-3.1031-4.3766-5.4052-8.6358-5.4419zm2.2851 7.4107c3.6797 0 5.8883 2.5782 5.8883 6.9635l.0086 4.479c0 2.9557-1.8242 6.4136-5.8969 6.4136-6.2612 0-6.094-6.7909-6.094-9.0527 0-7.6082 3.336-8.8034 6.094-8.8034zm18.9669 8.8908c0-3.8111-.1815-16.2811 15.9928-16.2811 6.4927 0 9.2038 2.0736 9.2038 2.0736l-2.1791 6.7887s-2.7075-1.4977-6.2356-1.4977c-4.5187 0-7.4021 2.6313-7.4021 7.2609l.005 3.3197c0 4.4485 2.7821 7.4181 7.4064 7.4181 3.2141 0 6.1764-1.5118 6.1764-1.5118l2.1735 6.6469s-2.4789 2.0867-9.1029 2.0867c-15.4005 0-16.0379-11.188-16.0379-16.304zm77.8894-16.293c8.762 0 12.833 6.6197 12.833 16.0164 0 11.8374-5.199 16.5751-12.838 16.5751-4.37 0-7.601-1.8475-9.346-5.2958v4.6767l-8.874-.0035v-47.04302l9.422-.825378v20.907998c1.36-3.6579 5.828-5.0085 8.804-5.0085zm-2.641 7.4022c-3.68 0-6.162 2.5782-6.162 6.9635l-.009 4.479c-.005 2.9557 1.719 6.4136 6.171 6.4136 6.261 0 6.094-6.7909 6.094-9.0527 0-7.6082-3.336-8.8034-6.094-8.8034zm-33.704-7.3762c-9.9377 0-15.1839 5.4421-15.1839 15.1134v1.7969c0 12.5524 7.3673 15.7841 16.1509 15.7841 8.537 0 12.401-2.3985 12.401-2.3985l-1.763-6.3874s-4.545 1.9426-9.509 1.9426c-5.1451 0-7.358-1.3172-7.9252-6.2841h19.9502v-5.1243c0-10.4909-5.887-14.443-14.122-14.443zm.239 6.396c3.44 0 5.669 2.1187 5.546 7.0324h-11.5969c.2011-5.1716 2.6048-7.0322 6.0509-7.0322zm67.726-6.4391c-10.205 0-15.577 5.7764-15.577 16.128 0 14.2029 9.26 16.4891 15.594 16.4891 9.272 0 15.44-5.0139 15.44-16.3602 0-11.8094-6.936-16.2569-15.457-16.2569zm-.129 7.445c4.488 0 6.266 3.3733 6.266 7.2131v3.3012c0 4.6516-2.488 7.342-6.283 7.342-3.548 0-6.042-2.5167-6.042-7.342v-3.3012c0-5.1462 2.967-7.2131 6.059-7.2131zm34.356-7.445c-10.205 0-15.577 5.7764-15.577 16.128 0 14.2029 9.26 16.4891 15.594 16.4891 9.271 0 15.44-5.0139 15.44-16.3602 0-11.8094-6.936-16.2569-15.457-16.2569zm-.129 7.445c4.487 0 6.265 3.3733 6.265 7.2131v3.3012c0 4.6516-2.488 7.342-6.282 7.342-3.548 0-6.042-2.5167-6.042-7.342v-3.3012c0-5.1462 2.967-7.2131 6.059-7.2131zm19.146 24.5412v-47.04322l9.449-.825378v31.531298l9.375-15.0248h9.978l-9.779 15.5613 10.156 15.8008h-10.007l-9.723-15.3424v15.3424z" fill="#555"/></g></svg>

<svg xmlns="http://www.w3.org/2000/svg" width="252" height="49" viewBox="0 0 252 49" fill="none"><g clip-path="url(#clip0_949_1363)"><path d="M16.5098 48.1218H7.06136V24.4627H0.624878V16.7597H7.06111V11.2785C7.06111 4.78333 9.90787 0.125 19.3308 0.125C21.3237 0.125 24.4526 0.528495 24.4526 0.528495V7.68109H21.1663C17.8177 7.68109 16.5103 8.70419 16.5103 11.5327V16.7597H24.3272L23.6311 24.4627H16.5101L16.5098 48.1218ZM38.1896 16.1442C38.052 16.1442 37.9103 16.1492 37.7701 16.1527C29.0089 16.1527 25.0005 22.7724 25.0005 32.1691C25.0005 44.0065 30.2 48.7442 37.8386 48.7442C42.2089 48.7442 45.0802 46.8965 46.8254 43.4484V48.1251H55.8123V16.763H46.8254V21.5861C45.4004 18.483 42.4488 16.1809 38.1896 16.1442ZM40.4747 23.5549C44.1544 23.5549 46.363 26.1331 46.363 30.5184L46.3716 34.9974C46.3716 37.9531 44.5474 41.411 40.4747 41.411C34.2135 41.411 34.3807 34.6201 34.3807 32.3583C34.3807 24.7501 37.7167 23.5549 40.4747 23.5549ZM59.4416 32.4457C59.4416 28.6346 59.2601 16.1646 75.4344 16.1646C81.9271 16.1646 84.6382 18.2382 84.6382 18.2382L82.4591 25.0269C82.4591 25.0269 79.7516 23.5292 76.2235 23.5292C71.7048 23.5292 68.8214 26.1605 68.8214 30.7901L68.8264 34.1098C68.8264 38.5583 71.6085 41.5279 76.2328 41.5279C79.4469 41.5279 82.4092 40.0161 82.4092 40.0161L84.5827 46.663C84.5827 46.663 82.1038 48.7497 75.4798 48.7497C60.0793 48.7497 59.4419 37.5617 59.4419 32.4457H59.4416ZM137.331 16.1527C146.093 16.1527 150.164 22.7724 150.164 32.1691C150.164 44.0065 144.965 48.7442 137.326 48.7442C132.956 48.7442 129.725 46.8967 127.98 43.4484V48.1251L119.106 48.1216V1.07858L128.528 0.253202V21.1612C129.888 17.5033 134.356 16.1527 137.332 16.1527H137.331ZM134.69 23.5549C131.01 23.5549 128.528 26.1331 128.528 30.5184L128.519 34.9974C128.514 37.9531 130.238 41.411 134.69 41.411C140.951 41.411 140.784 34.6201 140.784 32.3583C140.784 24.7501 137.448 23.5549 134.69 23.5549ZM100.986 16.1787C91.0483 16.1787 85.8021 21.6208 85.8021 31.2921V33.089C85.8021 45.6414 93.1694 48.8731 101.953 48.8731C110.49 48.8731 114.354 46.4746 114.354 46.4746L112.591 40.0872C112.591 40.0872 108.046 42.0298 103.082 42.0298C97.9369 42.0298 95.724 40.7126 95.1568 35.7457H115.107V30.6214C115.107 20.1305 109.22 16.1784 100.985 16.1784L100.986 16.1787ZM101.225 22.5747C104.665 22.5747 106.894 24.6934 106.771 29.6071H95.1741C95.3752 24.4355 97.7789 22.5749 101.225 22.5749V22.5747ZM168.951 16.1356C158.746 16.1356 153.374 21.912 153.374 32.2636C153.374 46.4665 162.634 48.7527 168.968 48.7527C178.24 48.7527 184.408 43.7388 184.408 32.3925C184.408 20.5831 177.472 16.1356 168.951 16.1356ZM168.822 23.5806C173.31 23.5806 175.088 26.9539 175.088 30.7937V34.0949C175.088 38.7465 172.6 41.4369 168.805 41.4369C165.257 41.4369 162.763 38.9202 162.763 34.0949V30.7937C162.763 25.6475 165.73 23.5806 168.822 23.5806ZM203.178 16.1356C192.973 16.1356 187.601 21.912 187.601 32.2636C187.601 46.4665 196.861 48.7527 203.195 48.7527C212.466 48.7527 218.635 43.7388 218.635 32.3925C218.635 20.5831 211.699 16.1356 203.178 16.1356ZM203.049 23.5806C207.536 23.5806 209.314 26.9539 209.314 30.7937V34.0949C209.314 38.7465 206.826 41.4369 203.032 41.4369C199.484 41.4369 196.99 38.9202 196.99 34.0949V30.7937C196.99 25.6475 199.957 23.5806 203.049 23.5806ZM222.195 48.1218V1.07858L231.644 0.253202V31.7845L241.019 16.7597H250.997L241.218 32.321L251.374 48.1218H241.367L231.644 32.7794V48.1218H222.195Z" fill="#555555"/></g><defs><clipPath id="clip0_949_1363"><rect width="251" height="49" fill="white" transform="translate(0.499512)"/></clipPath></defs></svg>
